X:142
T: EIN JUNGES LAEMMCHEN WEISS WIE SCHNEE
N: B0632
O: Europa, Mitteleuropa, Deutschland
R: Kinder - Lied, Tier
M: 2/4
L: 1/16
K: G
D2 | G2G2F2D2 | B2B2A2
d2 | c2B2A2G2 | B4A2
D2 | c2c2B2G2 | e2e2d3
c | B2G2A2F2 | A4G2

